X:1
T:Erstanden ist I
T:Georg Vogler
T:Source : Catechismus---Würzburg---J.Volmari---1652. Editor : André Vierendeels (29/09/17).
T:Notes :  Original cleffs : C1, F4 Original note values have been quarterd Text Middle German Music and text slightly adapted
T:Erstanden ist I
T:©
C:Georg Vogler
Z:©
%%score [ 1 2 ]
L:1/8
Q:1/4=120
M:3/4
K:C
V:1 treble nm="Soprano" snm="S"
V:2 bass nm="Bass" snm="B"
V:1
 z2 z2 G2 |"^1)" G2- G2 A2 | B6 | A6 | d2 ^c4 | ^c2 d4 | d2 ^c4 |"^3)" ^c2 d4 | d2 d4 | e2 d4 | %10
w: Er-|stan- den ist|der|hei-||lig Christ,|Al- le|lu- ja,|der al-|ler Welt|
w: Der|Schlan- * gen|Kopf|zer-|ret- *|ten ist,|Al- le-|lu- ja,|zer- knirscht|hat ihn|
 B2 c4 | B4 A2 | A4 G2 | A4 B2 | c2 A4 | G6 |] %16
w: ein Trö-|* ster|ist, Al-|le: Al-|le- lu-|ja.|
w: Hertz Je-|* sus|Christ, Al-|le: Al-|le- lu-|ja.|
V:2
 z6 |"^2)" z6 |"^1)" G,2 G,2 G,2 | D,2 E,2 F,2 | D,2 A,4 | A,2 D,2 z2 | D,2 A,4 | A,2 D,2 z2 | z6 | %9
w: ||Er- stan- den|ist der hei-||lig Christ,|Al- le-|lu- ja,||
w: ||Der from- me|Vat- * ter|A- *|bra- ham,|Al- le-|lu- ia,||
 G,4 G,2- | G,2 C,2 G,2- | G,2 G,2 A,2- | A,2 ^F,2 E,2 | D,4 G,2 | C,2 D,4 | G,,6 |] %16
w: der al-|* ler Welt|_ ein Trö-|* * ster|ist, Al-|le- lu-|ja.|
w: dem Feind|_ mit Macht|_ grosz Gut|_ A- bra-|ham, Al|le- lu-|ja|

